X:1
T:6 Songs, Op.3
T:Liebestreu
T:1. Liebestreu
T:Johannes Brahms
T:Robert Reinick
T:6 Songs, Op.3
T:Creative Commons copyright waiver (CC0 1.0 Universal) 
T:Creative Commons copyright waiver (CC0 1.0 Universal) 
T:Creative Commons copyright waiver (CC0 1.0 Universal) 
C:Johannes Brahms
Z:Robert Reinick
Z:Creative Commons copyright waiver (CC0 1.0 Universal)
Z:
%%score 1 { 2 | ( 3 4 ) }
L:1/8
Q:1/4=64
M:4/4
K:Gb
V:1 treble nm="Singstimme\nVoice"
V:2 treble nm="Pianoforte"
V:3 bass 
V:4 bass 
V:1
"^Sehr langsam" z4 z2!p! (.F .G) | B2 (.F .G)!<(! B2 (=AB)!<)! | !>!g2 (fe) c2!p!!<(! (.B .c)!<)! | %3
w: "O ver-|senk, o ver- senk dein *|Leid, mein * Kind, in die|
 !>!e2 (.d .c)!>(! (.A2 .G2)!>)! |!p! F4 z2 z!pp! B | c3 B A2 (.c .e) | d3 c B2 z!pp! d | %7
w: See, in die tie- fe|See!" Ein|Stein wohl bleibt auf des|Mee- res Grund, mein|
!<(! g4-!<)! g2 =c2 | d4!<(! =d3 d!<)! |!>(! e6!>)!!pp! z2 | %10
w: Leid _ kommt|stets in die|Höh.|
[Q:1/4=70]"^Poco piu mosso" z4 z2!p! (.F .G) | B2 (F!<(!G) B2 (=AB)!<)! | %12
w: "Und die|Lieb, die _ du im _|
!>(! g2 (fe)!>)!!p! c2 (.B .c) | e2 (.d!>(! .c) (.A2 .G2)!>)! | %14
w: Her- zen _ trägst, brich sie|ab, brich sie ab, mein|
[Q:1/4=60]"^rit." F4 z2!pp![Q:1/4=64]"^Tempo I" (.B .B) | c3 B A2 (ce) | %16
w: Kind!" Ob die|Blum auch stirbt, wenn *|
 d3 c B2!pp!!<(! (.d .d)!<)! |!<(! g4-!<)! g2 =c2 |!<(! d6 =d2!<)! | %19
w: man sie bricht, treue *|Lieb _ nicht|so ge-|
"^ancora più mosso"[Q:1/4=70] e6[Q:1/4=72]"^.6" z2[Q:1/4=70]"^.1"[Q:1/4=70]"^.2"[Q:1/4=70]"^.4"[Q:1/4=70]"^.6"[Q:1/4=71][Q:1/4=71]"^.4"[Q:1/4=72][Q:1/4=73]"^.3"[Q:1/4=74]"^.2" | %20
w: schwind.|
[Q:1/4=75]"^.2" z4[Q:1/4=83]"^.8" z2"^agitato"[Q:1/4=90] (.F .G)[Q:1/4=76]"^.3"[Q:1/4=77]"^.5"[Q:1/4=78]"^.9"[Q:1/4=80]"^.4"[Q:1/4=82][Q:1/4=85]"^.7"[Q:1/4=86]"^.7"[Q:1/4=87]"^.8" | %21
w: "Und die|
!f! B2 (.F .G)!<(! B2 (=AB)!<)! | !>!g2 (fe) c2!<(! (.B .c)!<)! | e2 (d c) (.A2 .G2) | %24
w: Treu, und die Treu, 'swar *|nur ein * Wort, in den|Wind da- * mit hin-|
 F4 z2 z!f! B | B2 ^F =G!<(! B2 A B!<)! | !>!=g2 (.f .e) =c2!<(! (.c .f)!<)! | %27
w: aus." O|Mut- ter, und split- tert der|Fels auch im Wind, mei- ne|
 !>!a2 (.=g .f) !>!e2 !>!_c2 |"^sempre rit. e dim. sin al fine"[Q:1/4=75] B4 z4 | z4 z2 _c2 | %30
w: Treu- e, die hält ihn|aus,|die|
 B4 z2 A2 | G4 z2 F2 |!pp!!>(! E6!>)! z2 | z8 | !fermata!z8 |] %35
w: hält, die|hält ihn|aus.|||
V:2
 (6:4:6(.[B,EG].[B,EG].[B,EG].[B,EG].[B,EG].[B,EG]) (6:4:6(.[B,EG].[B,EG].[B,EG].[B,EG].[B,EG].[B,EG]) | %1
 (6:4:6[B,EG][B,EG][B,EG][B,EG][B,EG][B,EG]!pp!!<(! (6:4:6[B,EG][B,EG][B,EG][B,EG][B,EG][B,EG]!<)! | %2
!>(! (6:4:6[B,EG][B,EG][B,EG][B,EG][B,EG][B,EG]!>)!!pp!!<(! (6:4:6[CEF][CEF][CEF][CEF][CEF][CEF]!<)! | %3
 (6:4:6[CEF][CEF][CEF][CEF][CEF][CEF]!>(! (6:4:6[=CE][CE][CE][CE][CE][CE]!>)! | %4
!ppp! (3(.[=DF].[DF].[DF])!<(! (3(.[DFB].[DFB].[DFB]) (3(.[FB=d].[FBd].[FBd]) (3(.[Bdf].[Bdf].[Bdf])!<)! | %5
!pp! (3[ea][ea][ea] (3[eg][eg][eg] (3[ef][ef][ef] (3[fa][fa][fa] | %6
 (6:4:6[fa][fa][fa][fa][fa][fa] (3[dgb][dgb][dgb] (3[gb][gb][gb] | %7
!<(! (3[gbd'][gbd'][gbd'] (3[g=a=c'][gac'][gac']!<)!!>(! (3[gbd'][gbd'][gbd'] (3[gac'][gac'][gac']!>)! | %8
!pp! (6:4:6[gbd'][gbd'][gbd'][gbd'][gbd'][gbd'] (6:4:6[_fgb=d'][fgbd'][fgbd'][fgbd'][fgbd'][fgbd'] | %9
 (3[egc'e'][egc'e'][egc'e'] (3[egc'][egc'][egc'] (3[ceg][ceg][ceg] (3[Gce][Gce][Gce] | %10
 (3[EGc][EGc][EGc] (3[CEG][CEG][CEG]!p! (6:4:6[B,EG][B,EG][B,EG][B,EG][B,EG][B,EG] | %11
 (6:4:6[B,EG][B,EG][B,EG]!<(![B,EG][B,EG][B,EG] (6:4:6[B,EG][B,EG][B,EG][B,EG][B,EG][B,EG]!<)! | %12
!>(! (6:4:6[B,EG][B,EG][B,EG][B,EG][B,EG][B,EG] (6:4:6[CEF][CEF]!>)!!p![CEF][CEF][CEF][CEF] | %13
 (6:4:6[CEF][CEF][CEF][CEF][CEF][CEF]!>(! (6:4:6[=CE][CE][CE][CE][CE][CE]!>)! | %14
 (3[=DF][DF][DF] (3[DFB][DFB][DFB] (3[FB=d][FBd][FBd]!pp! (3[Bdf][Bdf][Bdf] | %15
 (3[ea][ea][ea] (3[eg][eg][eg] (3[ef][ef][ef] (3[fa][fa][fa] | %16
 (6:4:6[fa][fa][fa][fa][fa][fa] (3[dgb][dgb][dgb] (3[gb][gb][gb] | %17
!<(! (3[gbd'][gbd'][gbd'] (3[g=a=c'][gac'][gac']!<)!!>(! (3[gbd'][gbd'][gbd'] (3[gac'][gac'][gac']!>)! | %18
 (6:4:6[gbd'][gbd'][gbd'][gbd'][gbd'][gbd'] (6:4:6[_fgb=d'][fgbd'][fgbd'][fgbd'][fgbd'][fgbd'] | %19
!>(! (3[egc'e'][egc'e'][egc'e'] (3[egc'][egc'][egc']!>)!!<(! (3[ceg][ceg][ceg] (3[Gce][Gce][Gce]!<)! | %20
 (3[EGc][EGc][EGc] (3[CEG][CEG][CEG] (6:4:6.[B,EG].[B,EG].[B,EG].[B,EG].[B,EG].[B,EG] | %21
 (6:4:6[B,EG][B,EG][B,EG][B,EG][B,EG][B,EG] (6:4:6[B,EG][B,EG][B,EG][B,EG][B,EG][B,EG] | %22
 (6:4:6[B,EG][B,EG][B,EG][B,EG][B,EG][B,EG] (6:4:6[CEF][CEF][CEF][CEF][CEF][CEF] | %23
 (6:4:6[CEF][CEF][CEF][CEF][CEF][CEF] (6:4:6[=CE][CE][CE][CE][CE][CE] | %24
 (3[=DF][DF][DF]!<(! (3[DFB][DFB][DFB] (3[FB=d][FBd][FBd] (3[_ABdf][ABdf][ABdf]!<)! | %25
 (6:4:6[=GBe=g][GBeg][GBeg][GBeg][GBeg][GBeg] (6:4:6[GBeg][GBeg][GBeg][GBeg][GBeg][GBeg] | %26
 (3[=GBe=g][GBeg][GBeg] (3[GBf][GBf][GBe] (3[EF=c][EFc][EFc] (3[EFc][EFc][Acf] | %27
 (3[A=cea][Acea][Acea] (3[Ace=g][Aceg][Acef] (3[FA_ce][FAce][FAce] (3[EFAc][EFAc][EFAc] | %28
 (6:4:6[=DFAB][DFAB][DFAB][DFAB][DFAB][DFAB] (6:4:6[DFA][DFA][DFA][DFA][DFA][DFA] | %29
 (6:4:6[=CFA][CFA][CFA][CFA][CFA][CFA] (6:4:6[_CFA][CFA][CFA][CFA][CFA][CFA] | %30
 (6:4:6[B,DG][B,DG][B,DG][B,DG][B,DG][B,DG] (6:4:6[A,CF][A,CF][A,CF][A,CF][A,CF][A,CF] | %31
 (6:4:6[G,B,E][G,B,E][G,B,E][G,B,E][G,B,E][G,B,E][K:bass] (3[F,B,E][F,B,E][F,B,E] (3[F,B,=D][F,B,D][F,B,D] | %32
 (6:4:6[G,B,E][G,B,E][G,B,E][G,B,E][G,B,E][G,B,E] (6:4:6[G,B,E][G,B,E][G,B,E][G,B,E][G,E][G,B,E] | %33
 (6:4:6[G,B,E][G,B,E][G,B,E][G,B,E][G,B,E][G,B,E] (6:4:6[G,B,E][G,B,E][G,B,E][G,B,E][G,E][G,B,E] | %34
 !fermata![G,B,E]8 |] %35
V:3
!pp! z4 (=D,,E,, G,,2) | (=D,,E,, G,,2) (D,,E,, G,,2) | (=A,,,B,,, G,,2) (=G,,,_A,,, A,,2) | %3
 (=G,,,A,,, A,,2) (A,,,=A,,, =A,,2) | (=A,,,B,,, B,,2) z4 |[K:treble] (c3 B A2) (ce) | %6
 (d3 c B2) d2 | (!>!_f2 e2 f2 e2) |!<(! (_f2 d2 B2 G2)!<)! | [CG]6 z2 |[K:bass] z4 (=D,,E,, G,,2) | %11
 (=D,,E,, G,,2) (D,,E,, G,,2) | (=A,,,B,,, G,,2) (=G,,,_A,,, A,,2) | %13
 (=G,,,A,,, A,,2) (A,,,=A,,, =A,,2) |"^rit. dim." (=A,,,B,,, B,,2) z4 |[K:treble] (c3 B A2) (ce) | %16
 (d3 c B2) d2 | (!>!_f2 e2 f2 e2) |!<(! (_f2 d2 B2 G2)!<)! |"^ancora più mosso agitato" [CG]6 z2 | %20
[K:bass] z4 (=D,,E,, G,,2) |!f! (=D,,E,, G,,2)!<(! (D,,E,, G,,2)!<)! | %22
 (=A,,,B,,, G,,2) (=G,,,_A,,, A,,2) | (=G,,,A,,, A,,2) (A,,,=A,,, =A,,2) | %24
 (=A,,,B,,, B,,2) (=A,,B,, B,2) |!f! (=A,,,B,,, B,,2) (=A,,B,, B,2) | %26
 (^F,,,=G,,, =G,,2)!<(! (G,,A,, A,2)!<)! | (=E,,,F,,, F,,2) (=G,,,A,,, A,,2) | %28
"^dim." (=A,,,B,,,- [B,,,B,,]2-) ([B,,,B,,]=B,,,- [B,,,=B,,]2-) | %29
 ([B,,,B,,]=C,,- [C,,=C,]2-) ([C,,C,]D,,- [D,,D,]2-) | %30
 ([D,,D,]D,,- [D,,D,]2-) ([D,,D,]A,,,- [A,,,A,,]2-) | %31
 ([A,,,A,,]B,,,- [B,,,B,,]2-) ([B,,,B,,]B,,,- [B,,,B,,]2) |!pp! (=D,,E,, G,,4) (=A,,,B,,, | %33
!>(! E,,4) (F,,,2 G,,,2!>)! |!ppp! !fermata!E,,,8) |] %35
V:4
 x8 | x8 | x8 | x8 | x8 |[K:treble] x8 | x8 | G4 G4 | G6 G2 | x8 |[K:bass] x8 | x8 | x8 | x8 | x8 | %15
[K:treble] x8 | x8 | G4 G4 | G6 G2 | x8 |[K:bass] x8 | x8 | x8 | x8 | x8 | x8 | x8 | x8 | x8 | x8 | %30
 x8 | x8 | x8 | x8 | x8 |] %35

